X:70
T:Jig. RDO.70
M:6/8
L:1/8
Q:3/8=110
S:Robert D. Owen MS,Indiana,1826.
R:.Jig
O:Indiana,USA
A:New Harmony
Z:vmp.Chris Partington
K:G
GAG BAB|g2g gab|GAGB2c|dBGA2G|!
GAG BAB|g2g gab|bag efg|dcB ABc:|!
|:e>fe edB|d>ed dBd|e>fe edB|edB ABd|!
e>fe ede|gab bab|gfe efg|dcB ABd:|
% Output from ABC2Win Version 2.1 k on 15/10/2005
